format-font.svg

<svg fill="currentColor" viewBox="0 0 24 24"><path d="M17 8h3v12h1v1h-4v-1h1v-3h-4l-1.5 3H14v1h-4v-1h1zm1 1-3.5 7H18zM5 3h5c1.11 0 2 .89 2 2v11H9v-5H6v5H3V5c0-1.11.89-2 2-2m1 2v4h3V5z"/></svg>

<svg  viewBox="0 0 24 24" fill="currentColor"><path  d="M17,8H20V20H21V21H17V20H18V17H14L12.5,20H14V21H10V20H11L17,8M18,9L14.5,16H18V9M5,3H10C11.11,3 12,3.89 12,5V16H9V11H6V16H3V5C3,3.89 3.89,3 5,3M6,5V9H9V5H6Z"/></svg>
